!!!COM: Beethoven
!!!OTL: Acht Variationen uber "Une fievre brulante" aus "Richard Coeur de Lion" von A.E.M. Gretry
!!!Variation: Variation 1 b
**function	**harm	**kern	**kern
*M3/4	*M3/4	*staff2	*staff1
*C:	*C:	*clefG2	*clefG2
*tb8	*	*k[]	*k[]
*	*	*M3/4	*M3/4
*	*	*C:	*C:
=-	=-	=-	=-
4D	4V	4r	4ddd
=	=	=43	=43
2D	2V	2g 2b	(8ccc#L
.	.	.	8dddJ
.	.	.	8eeeL
.	.	.	8dddJ
4D	4viio/vi	4g# 4b	8cccL
.	.	.	8bbJ
=	=	=44	=44
2. D	2.vi ii/V	2a 2cc	8dddL
.	.	.	8cccJ
.	.	.	8bbL
.	.	.	8aaJ
.	.	4a 4cc	8ggL
.	.	.	8ff#J
=	=	=45	=45
2.D	2.V65/V	2.f# 2.a	8eeL
.	.	.	8ddJ
.	.	.	8cc#L
.	.	.	8ddJ
.	.	.	8eeL
.	.	.	8ccJ
=	=	=46	=46
2D	2V/V	4r	8bL
.	.	.	8aJ
.	.	4d 4f#	8g#L
.	.	.	8aJ
4D	4V2/V	4c 4d 4f#	8bL
.	.	.	8ccJ)
=	=	=47	=47
*	*	*^	*
2.D	2.I6/V	(4B	2.B	(8ddL
.	.	.	.	8cc#J
.	.	4d	.	8eeL
.	.	.	.	8ddJ
.	.	[4g	.	8aaL
.	.	.	.	8ggJ)
=	=	=48	=48	=48
2.P	2.ii6/V	4g]	2.c	(8eeL
.	.	.	.	8dd#J
.	.	4g#	.	8ff#L
.	.	.	.	8eeJ
.	.	4a)	.	8ddd#L
.	.	.	.	8eeeJ)
=	=	=49	=49	=49
2D	2I64/V	4r	2d	(8ccc#L
.	.	.	.	8dddJ
.	.	(4b	.	8bbL
.	.	.	.	8ggJ
4D	4V7/V	4cc)	4d	8ff#L
.	.	.	.	8ddJ)
=	=	=50	=50	=50
*	*	*v	*v	*
2T	2I/V	4b 4g	4gg
.	.	4r 4G	4r
=	=	=	=
*-	*-	*-	*-
